static/img/kroki/d673c3e6a997db3362e5e2fe27601e13.svg

<?xml version="1.0" encoding="us-ascii" standalone="no"?><svg xmlns="http://www.w3.org/2000/svg" xmlns:xlink="http://www.w3.org/1999/xlink" contentStyleType="text/css" height="252px" preserveAspectRatio="none" style="width:1590px;height:252px;" version="1.1" viewBox="0 0 1590 252" width="1590px" zoomAndPan="magnify"><defs/><g><!--class azure_machine_learning_registry_model_version--><g id="elem_azure_machine_learning_registry_model_version"><rect codeLine="23" fill="#3D176E" height="39.7891" id="azure_machine_learning_registry_model_version" rx="2.5" ry="2.5" style="stroke:#000D19;stroke-width:0.5;" width="451" x="7" y="206.58"/><ellipse cx="22" cy="226.4745" fill="#ADD1B2" rx="11" ry="11" style="stroke:#181818;stroke-width:1.0;"/><path d="M24.9688,232.1152 Q24.3906,232.412 23.75,232.5527 Q23.1094,232.7089 22.4063,232.7089 Q19.9063,232.7089 18.5781,231.0683 Q17.2656,229.412 17.2656,226.287 Q17.2656,223.162 18.5781,221.5058 Q19.9063,219.8495 22.4063,219.8495 Q23.1094,219.8495 23.75,220.0058 Q24.4063,220.162 24.9688,220.4589 L24.9688,223.1777 Q24.3438,222.5995 23.75,222.3339 Q23.1563,222.0527 22.5313,222.0527 Q21.1875,222.0527 20.5,223.1308 Q19.8125,224.1933 19.8125,226.287 Q19.8125,228.3808 20.5,229.4589 Q21.1875,230.5214 22.5313,230.5214 Q23.1563,230.5214 23.75,230.2558 Q24.3438,229.9745 24.9688,229.3964 L24.9688,232.1152 Z " fill="#000000"/><text fill="#D9B8FF" font-family="Helvetica" font-size="17" lengthAdjust="spacing" textLength="409" x="41" y="232.3598">azure_machine_learning_registry_model_version</text></g><!--class azure_machine_learning_serverless_endpoint--><g id="elem_azure_machine_learning_serverless_endpoint"><rect codeLine="26" fill="#3D176E" height="39.7891" id="azure_machine_learning_serverless_endpoint" rx="2.5" ry="2.5" style="stroke:#000D19;stroke-width:0.5;" width="422" x="748.5" y="106.79"/><ellipse cx="763.5" cy="126.6845" fill="#ADD1B2" rx="11" ry="11" style="stroke:#181818;stroke-width:1.0;"/><path d="M766.4688,132.3252 Q765.8906,132.622 765.25,132.7627 Q764.6094,132.9189 763.9063,132.9189 Q761.4063,132.9189 760.0781,131.2783 Q758.7656,129.622 758.7656,126.497 Q758.7656,123.372 760.0781,121.7158 Q761.4063,120.0595 763.9063,120.0595 Q764.6094,120.0595 765.25,120.2158 Q765.9063,120.372 766.4688,120.6689 L766.4688,123.3877 Q765.8438,122.8095 765.25,122.5439 Q764.6563,122.2627 764.0313,122.2627 Q762.6875,122.2627 762,123.3408 Q761.3125,124.4033 761.3125,126.497 Q761.3125,128.5908 762,129.6689 Q762.6875,130.7314 764.0313,130.7314 Q764.6563,130.7314 765.25,130.4658 Q765.8438,130.1845 766.4688,129.6064 L766.4688,132.3252 Z " fill="#000000"/><text fill="#D9B8FF" font-family="Helvetica" font-size="17" lengthAdjust="spacing" textLength="380" x="782.5" y="132.5698">azure_machine_learning_serverless_endpoint</text></g><!--class azure_machine_learning_workspace--><g id="elem_azure_machine_learning_workspace"><rect codeLine="29" fill="#3D176E" height="39.7891" id="azure_machine_learning_workspace" rx="2.5" ry="2.5" style="stroke:#000D19;stroke-width:0.5;" width="344" x="1051.5" y="7"/><ellipse cx="1066.5" cy="26.8945" fill="#ADD1B2" rx="11" ry="11" style="stroke:#181818;stroke-width:1.0;"/><path d="M1069.4688,32.5352 Q1068.8906,32.832 1068.25,32.9727 Q1067.6094,33.1289 1066.9063,33.1289 Q1064.4063,33.1289 1063.0781,31.4883 Q1061.7656,29.832 1061.7656,26.707 Q1061.7656,23.582 1063.0781,21.9258 Q1064.4063,20.2695 1066.9063,20.2695 Q1067.6094,20.2695 1068.25,20.4258 Q1068.9063,20.582 1069.4688,20.8789 L1069.4688,23.5977 Q1068.8438,23.0195 1068.25,22.7539 Q1067.6563,22.4727 1067.0313,22.4727 Q1065.6875,22.4727 1065,23.5508 Q1064.3125,24.6133 1064.3125,26.707 Q1064.3125,28.8008 1065,29.8789 Q1065.6875,30.9414 1067.0313,30.9414 Q1067.6563,30.9414 1068.25,30.6758 Q1068.8438,30.3945 1069.4688,29.8164 L1069.4688,32.5352 Z " fill="#000000"/><text fill="#D9B8FF" font-family="Helvetica" font-size="17" lengthAdjust="spacing" textLength="302" x="1085.5" y="32.7798">azure_machine_learning_workspace</text></g><!--class azure_machine_learning_workspace_model_version--><g id="elem_azure_machine_learning_workspace_model_version"><rect codeLine="32" fill="#3D176E" height="39.7891" id="azure_machine_learning_workspace_model_version" rx="2.5" ry="2.5" style="stroke:#000D19;stroke-width:0.5;" width="475" x="493" y="206.58"/><ellipse cx="508" cy="226.4745" fill="#ADD1B2" rx="11" ry="11" style="stroke:#181818;stroke-width:1.0;"/><path d="M510.9688,232.1152 Q510.3906,232.412 509.75,232.5527 Q509.1094,232.7089 508.4063,232.7089 Q505.9063,232.7089 504.5781,231.0683 Q503.2656,229.412 503.2656,226.287 Q503.2656,223.162 504.5781,221.5058 Q505.9063,219.8495 508.4063,219.8495 Q509.1094,219.8495 509.75,220.0058 Q510.4063,220.162 510.9688,220.4589 L510.9688,223.1777 Q510.3438,222.5995 509.75,222.3339 Q509.1563,222.0527 508.5313,222.0527 Q507.1875,222.0527 506.5,223.1308 Q505.8125,224.1933 505.8125,226.287 Q505.8125,228.3808 506.5,229.4589 Q507.1875,230.5214 508.5313,230.5214 Q509.1563,230.5214 509.75,230.2558 Q510.3438,229.9745 510.9688,229.3964 L510.9688,232.1152 Z " fill="#000000"/><text fill="#D9B8FF" font-family="Helvetica" font-size="17" lengthAdjust="spacing" textLength="433" x="527" y="232.3598">azure_machine_learning_workspace_model_version</text></g><!--class microsoft_graph_service_principal--><g id="elem_microsoft_graph_service_principal"><rect codeLine="35" fill="#3D176E" height="39.7891" id="microsoft_graph_service_principal" rx="2.5" ry="2.5" style="stroke:#000D19;stroke-width:0.5;" width="324" x="1002.5" y="206.58"/><ellipse cx="1017.5" cy="226.4745" fill="#ADD1B2" rx="11" ry="11" style="stroke:#181818;stroke-width:1.0;"/><path d="M1020.4688,232.1152 Q1019.8906,232.412 1019.25,232.5527 Q1018.6094,232.7089 1017.9063,232.7089 Q1015.4063,232.7089 1014.0781,231.0683 Q1012.7656,229.412 1012.7656,226.287 Q1012.7656,223.162 1014.0781,221.5058 Q1015.4063,219.8495 1017.9063,219.8495 Q1018.6094,219.8495 1019.25,220.0058 Q1019.9063,220.162 1020.4688,220.4589 L1020.4688,223.1777 Q1019.8438,222.5995 1019.25,222.3339 Q1018.6563,222.0527 1018.0313,222.0527 Q1016.6875,222.0527 1016,223.1308 Q1015.3125,224.1933 1015.3125,226.287 Q1015.3125,228.3808 1016,229.4589 Q1016.6875,230.5214 1018.0313,230.5214 Q1018.6563,230.5214 1019.25,230.2558 Q1019.8438,229.9745 1020.4688,229.3964 L1020.4688,232.1152 Z " fill="#000000"/><text fill="#D9B8FF" font-family="Helvetica" font-size="17" lengthAdjust="spacing" textLength="282" x="1036.5" y="232.3598">microsoft_graph_service_principal</text></g><!--class microsoft_graph_user--><g id="elem_microsoft_graph_user"><rect codeLine="38" fill="#3D176E" height="39.7891" id="microsoft_graph_user" rx="2.5" ry="2.5" style="stroke:#000D19;stroke-width:0.5;" width="222" x="1361.5" y="206.58"/><ellipse cx="1376.5" cy="226.4745" fill="#ADD1B2" rx="11" ry="11" style="stroke:#181818;stroke-width:1.0;"/><path d="M1379.4688,232.1152 Q1378.8906,232.412 1378.25,232.5527 Q1377.6094,232.7089 1376.9063,232.7089 Q1374.4063,232.7089 1373.0781,231.0683 Q1371.7656,229.412 1371.7656,226.287 Q1371.7656,223.162 1373.0781,221.5058 Q1374.4063,219.8495 1376.9063,219.8495 Q1377.6094,219.8495 1378.25,220.0058 Q1378.9063,220.162 1379.4688,220.4589 L1379.4688,223.1777 Q1378.8438,222.5995 1378.25,222.3339 Q1377.6563,222.0527 1377.0313,222.0527 Q1375.6875,222.0527 1375,223.1308 Q1374.3125,224.1933 1374.3125,226.287 Q1374.3125,228.3808 1375,229.4589 Q1375.6875,230.5214 1377.0313,230.5214 Q1377.6563,230.5214 1378.25,230.2558 Q1378.8438,229.9745 1379.4688,229.3964 L1379.4688,232.1152 Z " fill="#000000"/><text fill="#D9B8FF" font-family="Helvetica" font-size="17" lengthAdjust="spacing" textLength="180" x="1395.5" y="232.3598">microsoft_graph_user</text></g><!--link azure_machine_learning_serverless_endpoint to azure_machine_learning_registry_model_version--><g id="link_azure_machine_learning_serverless_endpoint_azure_machine_learning_registry_model_version"><path codeLine="41" d="M815.43,147.06 C688.25,164.17 509.7264,188.1801 382.5364,205.2901 " fill="none" id="azure_machine_learning_serverless_endpoint-to-azure_machine_learning_registry_model_version" style="stroke:#1A83AF;stroke-width:2.0;"/><polygon fill="#1A83AF" points="376.59,206.09,386.0429,208.8544,381.5454,205.4234,384.9764,200.9258,376.59,206.09" style="stroke:#1A83AF;stroke-width:2.0;"/></g><!--link azure_machine_learning_serverless_endpoint to azure_machine_learning_workspace_model_version--><g id="link_azure_machine_learning_serverless_endpoint_azure_machine_learning_workspace_model_version"><path codeLine="42" d="M914.26,147.01 C874.11,164.15 821.2876,186.7028 781.1676,203.8428 " fill="none" id="azure_machine_learning_serverless_endpoint-to-azure_machine_learning_workspace_model_version" style="stroke:#1A83AF;stroke-width:2.0;"/><polygon fill="#1A83AF" points="775.65,206.2,785.4978,206.3426,780.248,204.2357,782.3549,198.9858,775.65,206.2" style="stroke:#1A83AF;stroke-width:2.0;"/></g><!--link azure_machine_learning_serverless_endpoint to microsoft_graph_service_principal--><g id="link_azure_machine_learning_serverless_endpoint_microsoft_graph_service_principal"><path codeLine="43" d="M1000,147.01 C1035.94,164.15 1082.7552,186.4755 1118.6652,203.6155 " fill="none" id="azure_machine_learning_serverless_endpoint-to-microsoft_graph_service_principal" style="stroke:#1A83AF;stroke-width:2.0;"/><polygon fill="#1A83AF" points="1124.08,206.2,1117.6808,198.7133,1119.5677,204.0462,1114.2348,205.9331,1124.08,206.2" style="stroke:#1A83AF;stroke-width:2.0;"/></g><!--link azure_machine_learning_serverless_endpoint to microsoft_graph_user--><g id="link_azure_machine_learning_serverless_endpoint_microsoft_graph_user"><path codeLine="44" d="M1061.16,147.06 C1150.98,164.19 1275.3861,187.9065 1365.1461,205.0165 " fill="none" id="azure_machine_learning_serverless_endpoint-to-microsoft_graph_user" style="stroke:#1A83AF;stroke-width:2.0;"/><polygon fill="#1A83AF" points="1371.04,206.14,1362.9482,200.5255,1366.1284,205.2038,1361.4502,208.384,1371.04,206.14" style="stroke:#1A83AF;stroke-width:2.0;"/></g><!--link azure_machine_learning_workspace to azure_machine_learning_serverless_endpoint--><g id="link_azure_machine_learning_workspace_azure_machine_learning_serverless_endpoint"><path codeLine="45" d="M1171.34,47.22 C1125.06,64.36 1063.4261,87.185 1017.1761,104.325 " fill="none" id="azure_machine_learning_workspace-to-azure_machine_learning_serverless_endpoint" style="stroke:#1A83AF;stroke-width:2.0;"/><polygon fill="#1A83AF" points="1011.55,106.41,1021.3791,107.0332,1016.2384,104.6725,1018.5991,99.5318,1011.55,106.41" style="stroke:#1A83AF;stroke-width:2.0;"/></g><!--link azure_machine_learning_workspace to microsoft_graph_service_principal--><g id="link_azure_machine_learning_workspace_microsoft_graph_service_principal"><path codeLine="46" d="M1217.74,47.2 C1206.46,84.97 1183.3073,162.511 1172.0073,200.341 " fill="none" id="azure_machine_learning_workspace-to-microsoft_graph_service_principal" style="stroke:#1A83AF;stroke-width:2.0;"/><polygon fill="#1A83AF" points="1170.29,206.09,1176.6986,198.6113,1171.721,201.2992,1169.0332,196.3217,1170.29,206.09" style="stroke:#1A83AF;stroke-width:2.0;"/></g><!--link azure_machine_learning_workspace to microsoft_graph_user--><g id="link_azure_machine_learning_workspace_microsoft_graph_user"><path codeLine="47" d="M1247.83,47.2 C1295.43,84.97 1395.6897,164.5307 1443.3697,202.3607 " fill="none" id="azure_machine_learning_workspace-to-microsoft_graph_user" style="stroke:#1A83AF;stroke-width:2.0;"/><polygon fill="#1A83AF" points="1448.07,206.09,1443.5058,197.3626,1444.1531,202.9823,1438.5334,203.6296,1448.07,206.09" style="stroke:#1A83AF;stroke-width:2.0;"/></g><!--SRC=[hPBFQy8m5CVl_Ii2dWKxsTJBm0coNMJCtSOeiNbfGzEalAIAZltlItKRNMjRExpcVVA-FtYnO40WpUoUf91k08rd4g4oYZGbSqIzMsYfaGmuftmygGwNMjbEO4LJ88yWjs15IAl4Qop2H84nvAOqUg1X4g7E5JkjjqYLSIDGjaGj93LcRYsAJMwXP8RDDbFEgsHrwM3C_CaTr32D3F0R6Or6p9zLaKwfrjo_n5eSWFZbqbRQGircJU98jReiY9B9Mj2VUQF7PygOK16vBRszd3oX0lppleufqxk2vbIQieonWA3jFeD5BHNCfenFpi9FJR0N5jKHUiWHWfI6iL0GIA2ed7g040bZSH-ace4CjkwQXLRam_C-spyQG0TBTuG1A9PfeUm5ltOQ4tUJ8VHXcxsb8aHjDBT1X3IBZwQ4-v2XKA78g6o3SqUVvZqY3jy6_dmwdY_VX_VzEhssIaCz_vRfxF9gculYlSu3kQI3Cz8z5_yxzONxZbc_0000]--></g></svg>

<svg xmlns="http://www.w3.org/2000/svg" width="1590" height="252" viewBox="0 0 1590 252"><rect width="451" height="39.789" x="7" y="206.58" fill="#3D176E" rx="2.5" ry="2.5" style="stroke:#000d19;stroke-width:.5"/><circle cx="22" cy="226.475" r="11" fill="#ADD1B2" style="stroke:#181818;stroke-width:1"/><path d="M24.969 232.115q-.578.297-1.219.438-.64.156-1.344.156-2.5 0-3.828-1.64-1.312-1.657-1.312-4.782t1.312-4.781q1.328-1.656 3.828-1.656.703 0 1.344.156.656.156 1.219.453v2.719q-.625-.578-1.219-.844-.594-.281-1.219-.281-1.343 0-2.031 1.078-.687 1.062-.687 3.156t.687 3.172q.688 1.062 2.031 1.062.625 0 1.219-.265.594-.281 1.219-.86z"/><text x="41" y="232.36" fill="#D9B8FF" font-family="Helvetica" font-size="17" textLength="409">azure_machine_learning_registry_model_version</text><rect width="422" height="39.789" x="748.5" y="106.79" fill="#3D176E" rx="2.5" ry="2.5" style="stroke:#000d19;stroke-width:.5"/><circle cx="763.5" cy="126.684" r="11" fill="#ADD1B2" style="stroke:#181818;stroke-width:1"/><path d="M766.469 132.325q-.578.297-1.219.438-.64.156-1.344.156-2.5 0-3.828-1.64-1.312-1.657-1.312-4.782t1.312-4.781q1.328-1.656 3.828-1.656.703 0 1.344.156.656.156 1.219.453v2.719q-.625-.579-1.219-.844-.594-.281-1.219-.281-1.343 0-2.031 1.078-.687 1.062-.687 3.156t.687 3.172q.688 1.062 2.031 1.062.625 0 1.219-.265.594-.281 1.219-.86z"/><text x="782.5" y="132.57" fill="#D9B8FF" font-family="Helvetica" font-size="17" textLength="380">azure_machine_learning_serverless_endpoint</text><rect width="344" height="39.789" x="1051.5" y="7" fill="#3D176E" rx="2.5" ry="2.5" style="stroke:#000d19;stroke-width:.5"/><circle cx="1066.5" cy="26.895" r="11" fill="#ADD1B2" style="stroke:#181818;stroke-width:1"/><path d="M1069.469 32.535q-.578.297-1.219.438-.64.156-1.344.156-2.5 0-3.828-1.64-1.312-1.657-1.312-4.782t1.312-4.781q1.328-1.656 3.828-1.656.703 0 1.344.156.656.156 1.219.453v2.719q-.625-.578-1.219-.844-.594-.281-1.219-.281-1.343 0-2.031 1.078-.687 1.062-.687 3.156t.687 3.172q.688 1.062 2.031 1.062.625 0 1.219-.265.594-.281 1.219-.86z"/><text x="1085.5" y="32.78" fill="#D9B8FF" font-family="Helvetica" font-size="17" textLength="302">azure_machine_learning_workspace</text><rect width="475" height="39.789" x="493" y="206.58" fill="#3D176E" rx="2.5" ry="2.5" style="stroke:#000d19;stroke-width:.5"/><circle cx="508" cy="226.475" r="11" fill="#ADD1B2" style="stroke:#181818;stroke-width:1"/><path d="M510.969 232.115q-.578.297-1.219.438-.64.156-1.344.156-2.5 0-3.828-1.64-1.312-1.657-1.312-4.782t1.312-4.781q1.328-1.656 3.828-1.656.703 0 1.344.156.656.156 1.219.453v2.719q-.625-.578-1.219-.844-.594-.281-1.219-.281-1.344 0-2.031 1.078-.687 1.062-.687 3.156t.687 3.172q.688 1.062 2.031 1.062.625 0 1.219-.265.594-.281 1.219-.86z"/><text x="527" y="232.36" fill="#D9B8FF" font-family="Helvetica" font-size="17" textLength="433">azure_machine_learning_workspace_model_version</text><rect width="324" height="39.789" x="1002.5" y="206.58" fill="#3D176E" rx="2.5" ry="2.5" style="stroke:#000d19;stroke-width:.5"/><circle cx="1017.5" cy="226.475" r="11" fill="#ADD1B2" style="stroke:#181818;stroke-width:1"/><path d="M1020.469 232.115q-.578.297-1.219.438-.64.156-1.344.156-2.5 0-3.828-1.64-1.312-1.657-1.312-4.782t1.312-4.781q1.328-1.656 3.828-1.656.703 0 1.344.156.656.156 1.219.453v2.719q-.625-.578-1.219-.844-.594-.281-1.219-.281-1.343 0-2.031 1.078-.687 1.062-.687 3.156t.687 3.172q.688 1.062 2.031 1.062.625 0 1.219-.265.594-.281 1.219-.86z"/><text x="1036.5" y="232.36" fill="#D9B8FF" font-family="Helvetica" font-size="17" textLength="282">microsoft_graph_service_principal</text><rect width="222" height="39.789" x="1361.5" y="206.58" fill="#3D176E" rx="2.5" ry="2.5" style="stroke:#000d19;stroke-width:.5"/><circle cx="1376.5" cy="226.475" r="11" fill="#ADD1B2" style="stroke:#181818;stroke-width:1"/><path d="M1379.469 232.115q-.578.297-1.219.438-.64.156-1.344.156-2.5 0-3.828-1.64-1.312-1.657-1.312-4.782t1.312-4.781q1.328-1.656 3.828-1.656.703 0 1.344.156.656.156 1.219.453v2.719q-.625-.578-1.219-.844-.594-.281-1.219-.281-1.343 0-2.031 1.078-.687 1.062-.687 3.156t.687 3.172q.688 1.062 2.031 1.062.625 0 1.219-.265.594-.281 1.219-.86z"/><text x="1395.5" y="232.36" fill="#D9B8FF" font-family="Helvetica" font-size="17" textLength="180">microsoft_graph_user</text><path fill="none" d="M815.43 147.06c-127.18 17.11-305.704 41.12-432.894 58.23" style="stroke:#1a83af;stroke-width:2"/><path fill="#1A83AF" d="m376.59 206.09 9.453 2.764-4.498-3.43 3.431-4.498z" style="stroke:#1a83af;stroke-width:2"/><path fill="none" d="M914.26 147.01c-40.15 17.14-92.972 39.693-133.092 56.833" style="stroke:#1a83af;stroke-width:2"/><path fill="#1A83AF" d="m775.65 206.2 9.848.143-5.25-2.107 2.107-5.25z" style="stroke:#1a83af;stroke-width:2"/><path fill="none" d="M1000 147.01c35.94 17.14 82.755 39.466 118.665 56.606" style="stroke:#1a83af;stroke-width:2"/><path fill="#1A83AF" d="m1124.08 206.2-6.4-7.487 1.888 5.333-5.333 1.887z" style="stroke:#1a83af;stroke-width:2"/><path fill="none" d="M1061.16 147.06c89.82 17.13 214.226 40.846 303.986 57.957" style="stroke:#1a83af;stroke-width:2"/><path fill="#1A83AF" d="m1371.04 206.14-8.092-5.614 3.18 4.678-4.678 3.18z" style="stroke:#1a83af;stroke-width:2"/><path fill="none" d="M1171.34 47.22c-46.28 17.14-107.914 39.965-154.164 57.105" style="stroke:#1a83af;stroke-width:2"/><path fill="#1A83AF" d="m1011.55 106.41 9.83.623-5.142-2.36 2.361-5.141z" style="stroke:#1a83af;stroke-width:2"/><path fill="none" d="M1217.74 47.2c-11.28 37.77-34.433 115.311-45.733 153.141" style="stroke:#1a83af;stroke-width:2"/><path fill="#1A83AF" d="m1170.29 206.09 6.409-7.479-4.978 2.688-2.688-4.977z" style="stroke:#1a83af;stroke-width:2"/><path fill="none" d="M1247.83 47.2c47.6 37.77 147.86 117.33 195.54 155.16" style="stroke:#1a83af;stroke-width:2"/><path fill="#1A83AF" d="m1448.07 206.09-4.564-8.727.647 5.62-5.62.647z" style="stroke:#1a83af;stroke-width:2"/></svg>
